X:20031
T:Tip Top Polka
R:Polka
C:Trad.
O:England
Z:Paul Hardy's Session Tunebook 2022 (see www.paulhardy.net). Creative Commons cc by-nc-sa licenced.
M:2/2
L:1/8
Q:1/4=160
K:G
Bc|"G"d2d2"D"dedc|"G"B2B2 B2GA|B2B2 B2d2|"D"AGAB A2A2|"C"c2c2 cdcB|"Am"A2A2 A3G|"D7"FGAB cdef|"G"g2g2 g2:|
|:ef|"C"g2e2 edef|"G"g2d2 d2GA|B2(3BcB A2G2|"D7"e2d2 d2ef|"C"g2e2 edef|"G"g2d2 d2G2|"D7"FGAB cdef|"G"g2g2 g2:|

